X: 6
T: Sixpenny Money
Z: Madeleine Townley
S: https://thesession.org/tunes/387#setting46032
R: jig
M: 6/8
L: 1/8
K: Dmaj
|:fAA fAA|BAG FAF|DED AFA|ABA efg|
fAA fAA|BAG FAF|D>DD AFA|defe2d:|
|:f>ff g>gg|afd ede|f>ff g>gg|afd e2d|
f>ff g>gg|afd ecB|A>AA AFA|dfd e2d:|

